X:1
T:Title
%%score [ 1 2 3 4 ]
L:1/8
Q:1/4=120
M:2/4
K:Bb
V:1 treble nm="MusicXML Part"
V:2 treble nm="MusicXML Part"
V:3 bass nm="MusicXML Part"
V:4 bass nm="MusicXML Part"
V:1
!f!"^Vom""^Das""^Das Wandern ist des Müllers Lust" F | %1
"^Wa - sser  ha-ben""^Wa- ndern ist  des""^Allegretto commodo" B>F DE | %2
"^wir's ge-lernt, vom""^Mü- llers Lust, das" F>G FB | %3
"^Wa - sser  ha-ben""^Wa- ndern ist  des" d>F"^Musik: Carl Friedrich Zöllner, 1844\nText: Wilhelm Müller" Bc | %4
"^wir's ge-lernt, vom""^Mü- llers Lust, das" d>e dB |"^Wa____ -""^Wa____ -" (d2 c2) | %6
"^ndern.""^sser." B2 z2 | z2 z"^Das""^Das"!p! F | %8
"^hat  nicht  Ruh_    bei_""^muß  ein   schle - chter" cc d/c/ =B/c/ | %9
"^Tag und Nacht ist""^Mü-ller  sein, dem" Ac FF | %10
"^stets  auf    Wa  -   nder -""^nie - mals   fiel__    das__" cc d/c/ =B/c/ | %11
"^schaft be- dacht, ist""^Wa-ndern  ein,  dem" Ac F!f!F | %12
"^stets  auf   Wa- nder -""^nie - mals  fiel   das" GA Bc | %13
"^schaft be-dacht, das""^Wa-ndern ein,  das" d>c"^cresc." Bd | %14
"^Wa - ndern,""^Wa - sser,"!>(! f2!>)! F z |!pp!"^Wa - ndern,""^Wa - sser," f2 F z | F2 f2- | %17
 f=e/f/dB | F2 f2- | %19
"^_________________________________ -""^_________________________________ -" f=e/f/dB | %20
"^cresc." Ac"^sser, das""^ndern, das" F!f!A |"^Wa___- ndern, das""^Wa___-  sser,  das" BF Bd | %22
!ff!"^Wa_____   -""^Wa_____   -" (f2 A2) |"^ndern.""^sser." B2 z |] %24
V:2
!f! F | B>F DE | F>G FF | F>F FF | B>B BF |"^Wa____ -""^Wa____ -" (F2 E2) | %6
"^ndern. Das muß ein""^sser.  Das hat nicht" .D!p!.F .D.F | %7
"^Ruh  bei  Tag  und""^schle-chter Mü-ller" .D.F .D.F | %8
"^Nacht, nicht Ruh    bei""^sein, ein schle - chter" .E.F .E.F | %9
"^Tag und Nacht ist""^Mü-ller sein, dem" .E.E .E.F | %10
"^stets  auf    Wa  -  nder -""^nie - mals  fiel       das" .E.F .E.F | %11
"^Wa-ndern  ein,  dem""^schaft be- dacht, ist" .E.E .E!f!.F | %12
"^nie - mals  fiel   das""^stets  auf   Wa- nder -" .G.^F .G.G | %13
"^Wa-ndern ein, das""^schaft be-dacht, das" ^F>F"^cresc." GB | %14
"^Wa - ndern,""^Wa - sser,"!>(! A2!>)! F z |!pp!"^Wa - ndern,""^Wa - sser," B2 F z | %16
"^Wa ___________________________________________________________""^Wa ___________________________________________________________" FBcB/c/ | %17
 dBFB | FBcB/c/ | %19
"^_________________________________ -""^_________________________________ -" dBFB | %20
 F2"^ndern, das""^sser,  das" F!f!F |"^Wa___- ndern, das""^Wa___-  sser,  das" F2 FF | %22
!ff!"^Wa_____   -""^Wa_____   -" (B2 E2) |"^ndern.""^sser." D2 z |] %24
V:3
!f!"^Das""^Vom" F, |"^Wa - sser  ha-ben""^Wa- ndern ist  des" B,>F, D,E, | %2
"^wir's ge-lernt, vom""^Mü- llers Lust, das" F,>G, F,B, | %3
"^Wa - sser  ha-ben""^Wa- ndern ist  des" B,>D DE | %4
"^wir's ge-lernt, vom""^Mü- llers Lust, das" F>G FB, | (B,2 A,2) | .B,!p!.D .B,.D | .B,.D .B,.D | %8
 .A,.A, .A,.A, | .F,.A, .C.F, | .A,.A, .A,.A, | .F,.A, .C!f!.F, | .B,.C .B,.G, | A,>D DB, | %14
!>(! C2!>)! F, z |!pp! D2 F, z | CDED/E/ | FDB,D | CDED/E/ | FDB,D | CE E!f!C | B,2 B,B, | %22
!ff! (D2 C2) | B,2 z |] %24
V:4
!f! F, | B,>F, D,E, | F,>G, F,D, | B,,>B, B,B, | B,>B, B,D, |"^Wa____ -""^Wa____ -" (F,2 F,,2) | %6
"^ndern.""^sser." B,,2 z2 | z2 z"^Das""^Das" B, |"^hat""^muß," F, z"^nicht,""^ja" F, z | %9
"^muß,""^hat" F, z"^nicht""^ein" F, z |"^Ruh""^schle -" F, z"^bei""^chter" F, z | %11
"^Tag  und  Nacht, ist""^Mü - ller  sein,  dem" F,F, F,!f!F, | %12
"^nie - mals  fiel   das""^stets  auf   Wa- nder -" E,E, E,E, | %13
"^Wa-ndern ein,  das""^schaft be-dacht, das" D,>D,"^cresc." G,G, | %14
"^Wa - ndern,""^Wa - sser,"!>(! F,2!>)! F,, z |!pp!"^Wa-ndern, das""^Wa- sser, das" F,2 F,,!pp!F, | %16
"^Wa-ndern,""^Wa - sser," F,,F,, z"^das""^das" F, | %17
"^Wa-ndern,""^Wa - sser," F,,F,, z"^das""^das" F, | %18
"^Wa-ndern,""^Wa - sser," F,,F,, z"^das""^das" F, | %19
 F,,F,, z"^das""^das""^Das sehn wir auch den Rädern ab,\nDen Rädern!\nDie gar nicht gerne stille stehn,\nDie sich bei Tag nicht müde drehn\nDie Räder.\nDie Räder..." F, | %20
"^Wa__- ndern, das""^Wa__-  sser,  das" F,A, C!f!E, | %21
"^Wa___- ndern, das""^Wa___-  sser,  das" D,F,"^Die Steine selbst, so schwer sie sind,\nDie Steine\nSie tanzen mit dem muntern Rhein\nUnd wollen gar noch schneller sein\nDie Steine\nDie Steine....." D,B, | %22
!ff!"^Wa_____   -""^Wa_____   -" (F,2 F,,2) |"^sser.""^ndern." B,,2 z |] %24

